X: 132139
T: Mountain Hare (The)
C: Joe Liddy
Z: BB
S: "The Leitrim Fiddler" (Dublin 1981)
L: 1/8
M: 4/4
R: reel
Q: 1/4 = 180
K: G
AB | GEDE GABd | edBd egde | gedg egdB | AB (3cBA GE E2 |
DEGA BABd | egdg egde | gedB AGAB | GEDE G2 :|
Bd | g2 ag edBd | eaab agef | gedB dega | gedB A2 Bd |
g2 ag edBd | eaab agef | (3gfe dB AGAB | GEDE G2 ||
Bd | g2 ag egdg | eaab agef | gfgf gaba | gedB A2 ef |
g2 dg Bgbg | agab gega | gedB AGAB | GEDE G4 ||
%%%%%%%%%%%%%%%%%%%%%%%%%%%%%%
